hero/solid/currency-yen.svg

<svg width="24" height="24" viewBox="0 0 24 24" fill="none" xmlns="http://www.w3.org/2000/svg">
<path fill-rule="evenodd" clip-rule="evenodd" d="M12 2.25C6.61522 2.25 2.25 6.61522 2.25 12C2.25 17.3848 6.61522 21.75 12 21.75C17.3848 21.75 21.75 17.3848 21.75 12C21.75 6.61522 17.3848 2.25 12 2.25ZM9.62404 7.08397C9.39427 6.73933 8.92862 6.6462 8.58397 6.87596C8.23933 7.10573 8.1462 7.57138 8.37596 7.91603L10.5986 11.25H9C8.58579 11.25 8.25 11.5858 8.25 12C8.25 12.4142 8.58579 12.75 9 12.75H11.25V14.25H9C8.58579 14.25 8.25 14.5858 8.25 15C8.25 15.4142 8.58579 15.75 9 15.75H11.25V17.25C11.25 17.6642 11.5858 18 12 18C12.4142 18 12.75 17.6642 12.75 17.25V15.75H15C15.4142 15.75 15.75 15.4142 15.75 15C15.75 14.5858 15.4142 14.25 15 14.25H12.75V12.75H15C15.4142 12.75 15.75 12.4142 15.75 12C15.75 11.5858 15.4142 11.25 15 11.25H13.4014L15.624 7.91603C15.8538 7.57138 15.7607 7.10573 15.416 6.87596C15.0714 6.6462 14.6057 6.73933 14.376 7.08397L12 10.6479L9.62404 7.08397Z" fill="#0F172A"/>
</svg>

<svg viewBox="0 0 24 24" xmlns="http://www.w3.org/2000/svg"><path fill-rule="evenodd" d="M12 2.25c-5.385 0-9.75 4.36-9.75 9.75 0 5.38 4.36 9.75 9.75 9.75 5.38 0 9.75-4.37 9.75-9.75 0-5.39-4.37-9.75-9.75-9.75ZM9.62 7.084v0c-.24-.35-.71-.44-1.05-.2 -.34.22-.43.68-.21 1.02l2.22 3.33h-1.6v0c-.42 0-.75.33-.75.75 0 .41.33.75.75.75h2.25v1.5H8.98v0c-.42 0-.75.33-.75.75 0 .41.33.75.75.75h2.25v1.5 0c0 .41.33.75.75.75 .41 0 .75-.34.75-.75v-1.5h2.25v0c.41 0 .75-.34.75-.75 0-.42-.34-.75-.75-.75h-2.25v-1.5h2.25v0c.41 0 .75-.34.75-.75 0-.42-.34-.75-.75-.75h-1.6l2.22-3.34V7.89c.23-.35.14-.81-.2-1.05 -.35-.24-.81-.15-1.05.19 -.01 0-.01 0-.01.01l-2.38 3.56 -2.38-3.57Z"/></svg>
